X:3072
T:Karapiet
C:anon.
O:Russia
F:http://abc.musicaviva.com/tunes/russia/karapiet.abc
M:C|
L:1/4
K:Am
"Am"EA2A|"E"^G>FE2|"E"EB2B|"Am"c>BA2|
"Am"EA2A|"E"^G>FE2|"Am"ed "E"cB|"Am"A2A2|
|:"Am"Ae2e|"Dm"f>ed2|"G7"df2f|"C"e>^de2|
"Am"Ac2c|"E7"d>cB2|"E7"ed cB|"Am"A2A2:|
W:
W:
W:  From Musica Viva - http://www.musicaviva.com
W:  the Internet center for free sheet music downloads.
